dist/svg/u1F940.svg

<?xml version="1.0" encoding="UTF-8"?><svg id="Layer_1" xmlns="http://www.w3.org/2000/svg" viewBox="0 0 40 40"><rect width="40" height="40" style="fill:none;"/><path d="M15.74508,37.35466l-1.71875-1.02246c1.44727-2.43213,1.4873-5.47705,.10352-7.94629l-6.31836-11.27539c-2.37305-4.23193-1.14551-9.49561,2.85352-12.24268,2.05762-1.41309,4.53809-1.93896,6.99219-1.48047,2.45312,.45801,4.5791,1.84521,5.98633,3.90576l1.46094,2.13721-1.65234,1.12793-1.45996-2.13721c-1.10547-1.61865-2.77539-2.70801-4.70215-3.06787-1.93066-.36084-3.87793,.05322-5.49219,1.16309-3.1416,2.1582-4.10547,6.29199-2.24219,9.6167l6.31836,11.27539c1.73242,3.09082,1.68262,6.90234-.12891,9.94629Z" style="fill:#5f706a;"/><g><path d="M18.62025,18.25348c-.58015-4.17591,2.62845-8.07226,7.16662-8.70274,4.53817-.63048,8.68739,2.24365,9.26754,6.41956,.43175,3.10769-3.33916,9.35376-5.29665,12.34596-.59565,.9105-1.8547,1.08542-2.67599,.37177-2.69902-2.34528-8.02977-7.32687-8.46152-10.43456Z" style="fill:#873f46;"/><path d="M20.6721,21.99734c-2.86633-3.23076-2.2992-8.05473,1.26672-10.77464,3.56591-2.71991,8.78027-2.30579,11.6466,.92497,2.09996,2.36696,2.40148,9.25647,2.4126,12.77132,.00355,1.12096-1.012,1.96718-2.11466,1.76544-3.66557-.67066-11.08054-2.28546-13.21126-4.68709Z" style="fill:#a35058;"/><path d="M34.13307,19.69285c1.87708-3.88975,.01643-8.37643-4.15587-10.02128-4.1723-1.64485-9.0763,.175-10.95338,4.06476-1.37521,2.84976,.21274,9.56055,1.16018,12.94532,.30216,1.07947,1.50992,1.61682,2.51582,1.12213,3.34393-1.64448,10.03789-5.21942,11.43324-8.11092Z" style="fill:#cf656f;"/></g><path d="M10.59399,27.28129l2.33483-.82454c.40936-.14456,.81355,.22796,.7028,.64772l-.63168,2.39422c-.85875,3.25487-3.47965,5.74721-6.77357,6.44131l-1.14879,.24208c-.28059,.05913-.53575-.17604-.49967-.46051l.14773-1.16469c.42357-3.3395,2.69422-6.15464,5.86835-7.27559Z" style="fill:#5f706a;"/></svg>

<svg id="Layer_1" data-name="Layer 1" xmlns="http://www.w3.org/2000/svg" viewBox="0 0 40 40"><defs><style>.cls-1{fill:none;}.cls-2{fill:#5f706a;}.cls-3{fill:#873f46;}.cls-4{fill:#a35058;}.cls-5{fill:#cf656f;}</style></defs><rect class="cls-1" width="40" height="40"/><path class="cls-2" d="M15.745,37.355l-1.719-1.023a7.963,7.963,0,0,0,.1-7.946L7.811,17.111A9.324,9.324,0,0,1,23.644,7.293L25.1,9.43l-1.652,1.128-1.46-2.137A7.324,7.324,0,0,0,9.556,16.133l6.318,11.275A9.971,9.971,0,0,1,15.745,37.355Z"/><path class="cls-3" d="M18.62,18.253c-.58-4.175,2.629-8.072,7.167-8.7s8.687,2.243,9.267,6.419c.432,3.108-3.339,9.354-5.3,12.346a1.791,1.791,0,0,1-2.676.372C24.383,26.343,19.052,21.361,18.62,18.253Z"/><path class="cls-4" d="M20.672,22a7.292,7.292,0,0,1,1.267-10.774,8.72,8.72,0,0,1,11.646.925c2.1,2.367,2.4,9.256,2.413,12.771a1.79,1.79,0,0,1-2.115,1.765C30.218,26.014,22.8,24.4,20.672,22Z"/><path class="cls-5" d="M34.133,19.693A7.291,7.291,0,0,0,29.977,9.672a8.721,8.721,0,0,0-10.953,4.064c-1.375,2.85.213,9.561,1.16,12.946A1.791,1.791,0,0,0,22.7,27.8C26.044,26.159,32.738,22.584,34.133,19.693Z"/><path class="cls-2" d="M10.594,27.281l2.335-.824a.541.541,0,0,1,.7.647L13,29.5A8.9,8.9,0,0,1,6.226,35.94l-1.148.242a.417.417,0,0,1-.5-.46l.148-1.165A8.9,8.9,0,0,1,10.594,27.281Z"/></svg>
